X:1760
T:Roger Was A Plowboy
M:C|
L:1/8
N:"collected by F. O'Neill"
B:O'Neill's 1760
R:Hornpipe
Z:"Transcribed by Bob Safranek, rjs@gsp.org"
K:G
     (GF)  | DGGF   GABG  | AFDE F2 ((3ABc) | defd cAGF | DEFE FGAF |
             DGGF   GABG  | AFDE F2 ((3ABc) | dfeg fdcA | GBAF G2  :|
|: ((3ABc) | dedB c2 (Bc) | dgfa g2   (ga)  | bgag fdde | fdcA GBAF |
             DGGF   GABG  | AFDE F2 ((3ABc) | dfeg fdcA | GBAF G2  :|


